assets/images/item_2568.svg

<?xml version="1.0" standalone="no"?><!DOCTYPE svg PUBLIC "-//W3C//DTD SVG 1.1//EN" "http://www.w3.org/Graphics/SVG/1.1/DTD/svg11.dtd"><svg xmlns="http://www.w3.org/2000/svg" version="1.1" width="76px" height="160.2px" viewBox="0 -12 76 160.2" style="top:-12px"><desc>6</desc><defs/><g id="Polygon11480"><path d="m47.1 23.2c-14.2 0-27.9 10.6-30.3 27.1c4.5-5.1 10.6-7.4 16.3-7.4c10.1 0 19.7 7 19.7 20.3c0 11.6-7.3 22.6-23.4 22.6c-17.8 0-27.3-13.4-27.3-28.7c0-18.2 13.7-39.3 40.4-39.3c-.02.02 4.6 0 4.6 0c0 0-.03 5.42 0 5.4zM16.5 60.7c0 8.4 3.5 20.5 12.1 20.5c6.5 0 10.1-6.9 10.1-14.5c0-9.2-5.2-15-11.8-15c-3 0-6.5 1.3-9.8 3.9c-.4 1.4-.6 3.2-.6 5.1z" stroke="none" fill="#000"/></g></svg>

<?xml version="1.0" standalone="no"?><!DOCTYPE svg PUBLIC "-//W3C//DTD SVG 1.1//EN" "http://www.w3.org/Graphics/SVG/1.1/DTD/svg11.dtd"><svg xmlns="http://www.w3.org/2000/svg" version="1.1" width="76px" height="160.2px" viewBox="0 -12 76 160.2" style="top:-12px">  <desc>6</desc>  <defs/>  <g id="Polygon11480">    <path d="M 47.1 23.2 C 32.9 23.2 19.2 33.8 16.8 50.3 C 21.3 45.2 27.4 42.9 33.1 42.9 C 43.2 42.9 52.8 49.9 52.8 63.2 C 52.8 74.8 45.5 85.8 29.4 85.8 C 11.6 85.8 2.1 72.4 2.1 57.1 C 2.1 38.9 15.8 17.8 42.5 17.8 C 42.48 17.82 47.1 17.8 47.1 17.8 C 47.1 17.8 47.07 23.22 47.1 23.2 Z M 16.5 60.7 C 16.5 69.1 20 81.2 28.6 81.2 C 35.1 81.2 38.7 74.3 38.7 66.7 C 38.7 57.5 33.5 51.7 26.9 51.7 C 23.9 51.7 20.4 53 17.1 55.6 C 16.7 57 16.5 58.8 16.5 60.7 Z " stroke="none" fill="#000"/>  </g></svg>
